html/app/assets/img/ui/stripe.svg

<svg fill="none" height="21" viewBox="0 0 50 21" width="50" xmlns="http://www.w3.org/2000/svg"><g fill="#b9b8c4"><g clip-rule="evenodd" fill-rule="evenodd"><path d="m49.2307 10.784c0-3.56679-1.6957-6.38117-4.9367-6.38117-3.2547 0-5.2239 2.81438-5.2239 6.35327 0 4.1937 2.3248 6.3115 5.6615 6.3115 1.6274 0 2.8581-.3762 3.788-.9057v-2.7865c-.9299.4737-1.9965.7663-3.3504.7663-1.3265 0-2.5026-.4737-2.653-2.1177h6.6872c0-.1812.0273-.9057.0273-1.24zm-6.7555-1.32364c0-1.57438.9436-2.22921 1.8051-2.22921.8342 0 1.7231.65483 1.7231 2.22921z"/><path d="m33.7915 4.40283c-1.3402 0-2.2017.6409-2.6804 1.08674l-.1777-.86382h-3.0086v16.24535l3.4188-.7384.0137-3.9429c.4923.3622 1.2171.8778 2.4205.8778 2.4479 0 4.6769-2.0063 4.6769-6.423-.0137-4.04042-2.2701-6.24177-4.6632-6.24177zm-.8205 9.59957c-.8069 0-1.2855-.2926-1.6137-.6548l-.0137-5.16904c.3556-.40404.8479-.68269 1.6274-.68269 1.2444 0 2.1059 1.42112 2.1059 3.24633 0 1.8669-.8478 3.2602-2.1059 3.2602z"/><path d="m23.2205 3.58067 3.4325-.75236v-2.82831l-3.4325.738427z"/></g><path d="m26.653 4.63965h-3.4325v12.19105h3.4325z"/><path clip-rule="evenodd" d="m19.5419 5.67063-.2189-1.03101h-2.9538v12.19098h3.4188v-8.26199c.8068-1.07281 2.1744-.87775 2.5983-.7245v-3.20449c-.4376-.16719-2.0376-.47371-2.8444 1.03101z" fill-rule="evenodd"/><path clip-rule="evenodd" d="m12.7042 1.61621-3.3367.7245-.01368 11.15999c0 2.062 1.51798 3.5807 3.54188 3.5807 1.1214 0 1.9419-.209 2.3932-.4598v-2.8283c-.4376.1811-2.5983.822-2.5983-1.24v-4.94608h2.5983v-2.96764h-2.5983z" fill-rule="evenodd"/><path clip-rule="evenodd" d="m3.45983 8.17856c0-.54337.43761-.75236 1.16239-.75236 1.03932 0 2.35214.32045 3.39146.89169v-3.27416c-1.13505-.45977-2.25641-.6409-3.39146-.6409-2.77607 0-4.62222 1.47686-4.62222 3.94292 0 3.84535 5.19658 3.23235 5.19658 4.89035 0 .6409-.54701.8499-1.31282.8499-1.13504 0-2.58461-.4737-3.733333-1.1146v3.3159c1.271793.5573 2.557263.7942 3.733333.7942 2.84445 0 4.8-1.4351 4.8-3.929-.01367-4.15192-5.22393-3.41349-5.22393-4.97394z" fill-rule="evenodd"/></g></svg>

<svg width="50" height="21" viewBox="0 0 50 21" fill="none" xmlns="http://www.w3.org/2000/svg">
<path fill-rule="evenodd" clip-rule="evenodd" d="M49.2307 10.784C49.2307 7.21721 47.535 4.40283 44.294 4.40283C41.0393 4.40283 39.0701 7.21721 39.0701 10.7561C39.0701 14.9498 41.3949 17.0676 44.7316 17.0676C46.359 17.0676 47.5897 16.6914 48.5196 16.1619V13.3754C47.5897 13.8491 46.5231 14.1417 45.1692 14.1417C43.8427 14.1417 42.6666 13.668 42.5162 12.024H49.2034C49.2034 11.8428 49.2307 11.1183 49.2307 10.784ZM42.4752 9.46036C42.4752 7.88598 43.4188 7.23115 44.2803 7.23115C45.1145 7.23115 46.0034 7.88598 46.0034 9.46036H42.4752Z" fill="#B9B8C4"/>
<path fill-rule="evenodd" clip-rule="evenodd" d="M33.7915 4.40283C32.4513 4.40283 31.5898 5.04373 31.1111 5.48957L30.9334 4.62575H27.9248V20.8711L31.3436 20.1327L31.3573 16.1898C31.8496 16.552 32.5744 17.0676 33.7778 17.0676C36.2257 17.0676 38.4547 15.0613 38.4547 10.6446C38.441 6.60418 36.1846 4.40283 33.7915 4.40283ZM32.971 14.0024C32.1641 14.0024 31.6855 13.7098 31.3573 13.3476L31.3436 8.17856C31.6992 7.77452 32.1915 7.49587 32.971 7.49587C34.2154 7.49587 35.0769 8.91699 35.0769 10.7422C35.0769 12.6091 34.2291 14.0024 32.971 14.0024Z" fill="#B9B8C4"/>
<path fill-rule="evenodd" clip-rule="evenodd" d="M23.2205 3.58067L26.653 2.82831V0L23.2205 0.738427V3.58067Z" fill="#B9B8C4"/>
<path d="M26.653 4.63965H23.2205V16.8307H26.653V4.63965Z" fill="#B9B8C4"/>
<path fill-rule="evenodd" clip-rule="evenodd" d="M19.5419 5.67063L19.323 4.63962H16.3692V16.8306H19.788V8.56861C20.5948 7.4958 21.9624 7.69086 22.3863 7.84411V4.63962C21.9487 4.47243 20.3487 4.16591 19.5419 5.67063Z" fill="#B9B8C4"/>
<path fill-rule="evenodd" clip-rule="evenodd" d="M12.7042 1.61621L9.3675 2.34071L9.35382 13.5007C9.35382 15.5627 10.8718 17.0814 12.8957 17.0814C14.0171 17.0814 14.8376 16.8724 15.2889 16.6216V13.7933C14.8513 13.9744 12.6906 14.6153 12.6906 12.5533V7.60722H15.2889V4.63958H12.6906L12.7042 1.61621Z" fill="#B9B8C4"/>
<path fill-rule="evenodd" clip-rule="evenodd" d="M3.45983 8.17856C3.45983 7.63519 3.89744 7.4262 4.62222 7.4262C5.66154 7.4262 6.97436 7.74665 8.01368 8.31789V5.04373C6.87863 4.58396 5.75727 4.40283 4.62222 4.40283C1.84615 4.40283 0 5.87969 0 8.34575C0 12.1911 5.19658 11.5781 5.19658 13.2361C5.19658 13.877 4.64957 14.086 3.88376 14.086C2.74872 14.086 1.29915 13.6123 0.150427 12.9714V16.2873C1.42222 16.8446 2.70769 17.0815 3.88376 17.0815C6.72821 17.0815 8.68376 15.6464 8.68376 13.1525C8.67009 9.00058 3.45983 9.73901 3.45983 8.17856Z" fill="#B9B8C4"/>
</svg>
